**kern
*staff1
!!pagebreak:original
*I"P1
*clefG2
*k[f#]
*M3/4
8ff#\L
8aa\J
=1
8aa\L
8gg\J
8b\
8r
4b\
=2
2b\
8ee\L
8gg\J
=3
8gg\L
8ff#\J
8a/
8r
4a/
=4
2a/
8cc\L
8dd\J
=5
8ff#\L
8ee\J
4cc\
8ff#\L
8ee\J
=6
2.cc\
=7
8ff#\L
8ee\J
4b\
8ff#\L
8ee\J
=8
2b\
=
*-
